X:240
T:Polska efter Einar Viklund
R:sl\"angpolska
A:Nyland (?)
Z:id:hn-sp-240
M:3/4
L:1/16
K:D
A3F D2F2 G2B2 | A2BA G2AG F2A2 | d3d A2c2 d2f2 | e2fe d2ed c2A2 |
A3F D2F2 G2B2 | A2BA G2AG F2A2 | d3d A2c2 d2f2 | efec d8 :|
|: f3f A2f2 A2f2 | f2ef g2eg f2d2 | e3e A2e2 A2e2 | e2de f2df e2d2 |
f3f A2f2 A2f2 | f2ef g2eg f2d2 | e2f2 g2eg f2df | e2c2 d8 :|

